!!!COM:	Pierre de la Rue
**kern	**kern
*part2	*part1
*staff2	*staff1
*clefG2	*clefG2
*k[]	*k[]
*M2/1	*M2/1
=1-	=1-
[1a	1r
1a_	[1cc
=2	=2
1a_	2cc]
.	4b
.	4a
1a]	2.cc
.	4dd
=3	=3
1a	2ee
.	[2ff
1a	2ff]
.	[2ee
=4	=4
[1g	2ee]
.	4dd
.	4cc
1g]	1b
=5	=5
1r	[1a
[1f	1a]
=6	=6
2f]	2r
4e	[2dd
4d	.
2.f	2dd]
.	4cc
4g	4b
=7	=7
2a	2cc
[2b	2dd
2b]	2ee
[2a	2ff
=8	=8
2a]	4ee
.	4dd
4g	[2dd
4f	.
1e	2dd]
.	2cc
=9	=9
2.d	1dd
4e	.
4f	2r
4d	.
[2g	2dd
=10	=10
2g]	1dd
2f	.
2.g	1dd
4f	.
=11	=11
4g	[1ee
4f	.
4e	.
4d	.
2c	1ee]
2g	.
=12	=12
[1a	[1ff
2a]	2ff]
[2g	[2ee
=13	=13
2g]	2ee]
4f	4dd
4e	4cc
1f	1dd
=14	=14
1e	2.ee
.	4dd
2r	2cc
2e	[2b
=15	=15
1e	2b]
.	4a
.	4g
1f	[1a
=16	=16
2f	2a]
[2e	[2g
2e]	2g]
4d	4f
4c	4e
=17	=17
1d	1f
1e	2r
.	2cc
=18	=18
2r	2b
2e	[2ee
1f	2ee]
.	2dd
=19	=19
2e	2cc
[2a	4b
.	4a
2a]	2.b
2g	.
.	4cc
=20	=20
2f	2dd
4e	4cc
4d	4b
2c	2a
2d	2dd
=21	=21
1e	4cc
.	4dd
.	4ee
.	4cc
2r	2.ff
2a	.
.	4ee
=22	=22
2g	4ee
.	4dd
[2b	[2gg
2b]	2gg]
2a	2ff
=23	=23
2g	2ee
4f	4dd
4e	4cc
1f	1dd
=24	=24
2r	[1cc
2f	.
2e	1cc_
[2a	.
=25	=25
2a]	1cc_
2g	.
2f	1cc_
4e	.
4d	.
=26	=26
[1A [1e	1cc_
1A] 1e]	1cc]
==	==
*-	*-
